X:113
%%etbk:tnset id:40,pos:1,rep:3
%%etbk:tube1 http://www.youtube.com/embed/byYDj7NtO20
T: Gan Ainm 
Z: Adapted for Piano Accordion by Martin Fleischmann (www.etunebook.ch, www.boxplayer.ch)
M: 4/4
L: 1/8
R: reel
K: Dmaj
|:!2!BB!1!A!4!d !2!B!4!d!1!A!2!F | !1!D2!2!D!1!D !4!A!1!D!2!F!4!A | !2!BBAd Bd!1!A!2!F | !1!DFAF !2!F!1!EE2 |
!2!BBAd Bd!1!A!2!F | !1!D2DD ADF!4!A | !4!GG!2!EG !3!FE!1!D!2!B, |1 !1!A,!2!B,!1!DE !3!F!1!EE2|2 A,B,DE !3!F!2!EE!3!F|
|:!1!GABc !5!d!2!BBB | !4!dd!2!Bd !1!A!2!F!1!D!2!F | !1!GABc !5!d!2!BBB | !1!A!2!FD!2!F F!1!EE!2!F |
!1!GABc !5!d!2!BBB | !4!ddBd !1!A!2!F!1!D!2!F | !4!G2EG !3!FE!1!D!2!B, |1 !1!A,!2!B,!1!DE !3!F!2!EE!3!F:|2 A,B,DE !3!F!1!EE2||

